source/img/icons/basket.svg

<svg width="20" height="18" viewBox="0 0 20 18" fill="none" xmlns="http://www.w3.org/2000/svg">
<path d="M1 1H4.27273L6.46545 11.2019C6.54027 11.5527 6.7452 11.8678 7.04436 12.092C7.34351 12.3163 7.71784 12.4354 8.10182 12.4286H16.0545C16.4385 12.4354 16.8129 12.3163 17.112 12.092C17.4112 11.8678 17.6161 11.5527 17.6909 11.2019L19 4.80952H5.09091M8.36364 16.2381C8.36364 16.6589 7.99732 17 7.54545 17C7.09359 17 6.72727 16.6589 6.72727 16.2381C6.72727 15.8173 7.09359 15.4762 7.54545 15.4762C7.99732 15.4762 8.36364 15.8173 8.36364 16.2381ZM17.3636 16.2381C17.3636 16.6589 16.9973 17 16.5455 17C16.0936 17 15.7273 16.6589 15.7273 16.2381C15.7273 15.8173 16.0936 15.4762 16.5455 15.4762C16.9973 15.4762 17.3636 15.8173 17.3636 16.2381Z" stroke="#151C22" stroke-width="2" stroke-linecap="round" stroke-linejoin="round"/>
</svg>

<svg width="20" height="18" fill="none" xmlns="http://www.w3.org/2000/svg"><path d="M1 1h3.273l2.192 10.202c.075.35.28.666.58.89a1.72 1.72 0 001.057.337h7.953a1.72 1.72 0 001.057-.337c.3-.224.504-.54.579-.89L19 4.81H5.09m3.274 11.428c0 .42-.367.762-.819.762-.451 0-.818-.341-.818-.762 0-.42.367-.762.818-.762.452 0 .819.341.819.762zm9 0c0 .42-.367.762-.819.762-.451 0-.818-.341-.818-.762 0-.42.367-.762.819-.762.451 0 .818.341.818.762z" stroke="#151C22" stroke-width="2" stroke-linecap="round" stroke-linejoin="round"/></svg>
